X:1
T:Title
%%score { ( 1 4 5 ) | ( 2 3 ) }
L:1/8
M:4/4
K:Ab
V:1 treble nm="Grand Piano"
V:4 treble 
V:5 treble 
V:2 bass 
V:3 bass 
V:1
 z4 z2[Q:1/4=94] [CE]>[DF] | [CA]>[CA] [EA]>B c2 A>[Ec] |[M:3/4] .[Fc]>[A,FA] [A,FA]>[A,DF] [CE]2 | %3
[M:1/4] E>F |[M:4/4] [CA]2- [C-FA-]2 [CEA]2 A>B | A2 z2 z4 |[M:3/4] [CA]>[CA] [EA]>B c2 | %7
[M:1/4] A>[Ec] |[M:4/4] .[Fc]>[A,FA] [A,FA]>[A,DF] [CE]2 B>B | [Ac]6 z2 |[M:3/4] [CEA]6 | %11
[M:1/4] (3ecf |[M:4/4] e6 z2 |[M:3/4] z2 (3EEE E2 |[M:1/4] E>F | %15
[M:4/4] [CA]2- [C-FA-]2 [CEA]2 A>B |[M:3/4] [Ec]2- [E-Ac-]2 [EAc]2 |[M:1/4] (3ecf |[M:4/4] e6 z2 | %19
[M:3/4] z2 (3EEE E2 |[M:1/4] B>B |[M:4/4] [Ac]6 z2 |[M:3/4] [CEA]6 |] %23
V:2
 z4 z2 [A,,A,]>[A,,A,] | [A,,E,]>[A,,E,] [C,A,]>[E,G,E] [A,E]2 [A,C]>[C,A,] | %2
[M:3/4] z/ AD,/ D,>F, A,2 |[M:1/4] C>B, |[M:4/4] A,2 F,2 A,2 C>D | A,2 A,2 A,2 [A,,A,]>[A,,A,] | %6
[M:3/4] [A,,E,]>[A,,E,] [C,A,]>[E,G,E] [A,E]2 |[M:1/4] [A,C]>[C,A,] | %8
[M:4/4] z/ AD,/ D,>F, A,2[K:treble] G>G | A,2 F,2 E,2 E,>E, |[M:3/4] A,,6 |[M:1/4] z2 | %12
[M:4/4][K:treble] (3[A,CA][A,C][K:bass][A,C] (3[E,B,][E,C][E,D] [A,C]2 z2 | %13
[M:3/4] (3A,,A,,A,, (3[C,A,][C,A,][E,C] [A,C]2 |[M:1/4] C>A, |[M:4/4] A,2 F,2 A,2 C>D | %16
[M:3/4] A,2 A,2 A,2 |[M:1/4] z2 | %18
[M:4/4][K:treble] (3[A,CA][A,C][K:bass][A,C] (3[E,B,][E,C][E,D] [A,C]2 z2 | %19
[M:3/4] (3A,,A,,A,, (3[C,A,][C,A,][E,C][K:treble] [A,C]2 |[M:1/4] G>G | %21
[M:4/4][K:bass] A,2 F,2 E,2 E,>E, |[M:3/4] A,,6 |] %23
V:3
 x8 | x8 |[M:3/4] [D,A,]2 z2 z2 |[M:1/4] x2 |[M:4/4] x8 | x8 |[M:3/4] x6 |[M:1/4] x2 | %8
[M:4/4] [D,A,]2 z2 z4[K:treble] | x8 |[M:3/4] x6 |[M:1/4] x2 | %12
[M:4/4][K:treble] x4/3[K:bass] x20/3 |[M:3/4] x6 |[M:1/4] x2 |[M:4/4] x8 |[M:3/4] x6 |[M:1/4] x2 | %18
[M:4/4][K:treble] x4/3[K:bass] x20/3 |[M:3/4] x4[K:treble] x2 |[M:1/4] x2 |[M:4/4][K:bass] x8 | %22
[M:3/4] x6 |] %23
V:4
 x8 | x8 |[M:3/4] x6 |[M:1/4] x2 |[M:4/4] E2 z2 z4 | [Ec]2- [E-Ac-]2 [EAc]2 [CE]>[DF] |[M:3/4] x6 | %7
[M:1/4] x2 |[M:4/4] x8 | z2 C2 E2 [CEA]>[DEB] |[M:3/4] x6 |[M:1/4] x2 |[M:4/4] (3z AA z2 z2 (3ecf | %13
[M:3/4] (3[CEA-][CEA-][CEA-] A4 |[M:1/4] x2 |[M:4/4] E2 z2 z4 |[M:3/4] A2 z2 z2 |[M:1/4] x2 | %18
[M:4/4] (3z AA z2 z2 (3ecf |[M:3/4] (3[CEA-][CEA-][CEA-] A4 |[M:1/4] x2 | %21
[M:4/4] z2 C2 E2 [CEA]>[DEB] |[M:3/4] x6 |] %23
V:5
 x8 | x8 |[M:3/4] x6 |[M:1/4] x2 |[M:4/4] x8 | x8 |[M:3/4] x6 |[M:1/4] x2 |[M:4/4] x8 | x8 | %10
[M:3/4] x6 |[M:1/4] x2 |[M:4/4] z2 (3GAB A2 z2 |[M:3/4] x6 |[M:1/4] x2 |[M:4/4] x8 |[M:3/4] x6 | %17
[M:1/4] x2 |[M:4/4] z2 (3GAB A2 z2 |[M:3/4] x6 |[M:1/4] x2 |[M:4/4] x8 |[M:3/4] x6 |] %23

